X:5534
T:Rezvost'
O:england
H:H. Tantsyur
S:A. Humenyuk
R:Polka
Q:144
M:2/4
L:1/8
A:village of Zyatkivtsi, Vinnyts'kiy
K:C
affd | cAAc | _BGGd | cAAc | \
affd | cAAc | ddee | fffz ::
eegg | g/2g/2g/2g/2 ge | \
g/2g/2g/2g/2 ge | g/2g/2g/2g/2 ge | \
eegg | g/2g/2g/2g/2 ge | g/2g/2g/2g/2 gB | cecz :|


